!!! OTL: Berkowitz151
!!! Chapter: 1
!!! Section: I
!!! Page: 34
!!! Mode: 
!!! Encoder: DJB
**kern
*staff1
*I"Piano
=1-
*clefC3
*k[]
*C:
*M2/4
8e\L
8g\J
8cc\L
16b\L
16cc\JJ
=2
16dd\LL
16cc\
16b\
16a\JJ
4g\
=3
8a\L
8f\J
8d\L
16e\L
16f\JJ
=4
8g\L
8a\J
4b\
=5
8cc\L
8e\J
8g\L
8c\J
=6
8d\L
8f\J
8a\L
16e\L
16f\JJ
=7
8g\L
16f\L
16g\JJ
8a\L
16g\L
16a\JJ
=8
!!linebreak:original
16b\LL
16g\
16a\
16b\JJ
4cc\
==
*-
